!!!!SEGMENT: pl-kk--kk-i-285--001_palestrina-giovanni-pierluigi-da--senex-puerum-portabat.krn
!!!cenid: 17xx:2098
!!!COM: Palestrina, Giovanni Pierluigi da
!!!COM-rismid: pe1904
!!!CDT: ~1525-1594/02/02
!!!CNT: Italian
!!!OTL: Senex puerum portabat
!!!PDT:
!!!AGN: Sacred
!!!SMS-siglum: PL-Kk
!!!SMS-shelfmark: Kk.I.285
!!!SMS-shelfwork: 001 W
!!!SMS-variant:
!!!SMS-altvar:
!!!NIFC-rismid: 1001147468
!!!URL-scan: http://repozytorium.nifc.pl/skany/pl-kk-nut--i-285
!!!ONB-nifc: UWAGA: utwory w zbiorze: 1. Senex puerum portabat, 2. Tulerunt Dominum meum
!!!key:
**kern	**text
*Iempty	*
*I"[Basso]	*
*I'B	*
*clefF4	*
*k[]	*
*a:	*
*M2/1	*
*met(C|)	*
=1-	=1-
!LO:TX:a:t=In Festo Purificationis Beatae V. MARIAE.	!
00r	.
=2-	=2-
.	.
=3-	=3-
00r	.
=4-	=4-
.	.
=5-	=5-
00r	.
=6-	=6-
.	.
=7-	=7-
0E	Se-
=8-	=8-
1G	-nex
*2\right	*
2.A\	Pu-
4A\	-e-
=9-	=9-
2A\	-rum
1F	por-
4E\	.
4D\	.
=10-	=10-
1E	-ta-
1D	.
=11-	=11-
!LO:TX:t=P:problem:kreska pseudotaktowa	!
1AA	-bat
1A	por-
=12-	=12-
1G	-ta-
2.D/	.
4E\	.
=13-	=13-
4F\	.
4G\	.
1A	.
4G\	.
4F\	.
=14-	=14-
!LO:TX:t=P:problem:kreska pseudotaktowa	!
1E	-bat
0r	.
=15-	=15-
.	.
!LO:TX:t=P:problem:kreska pseudotaktowa	!
1r	.
=16-	=16-
0AA	Se-
=17-	=17-
1C	-nex
2.D\	Pu-
4D\	-e-
=18-	=18-
2D\	-rum
2E\	por-
1F	-ta-
=19-	=19-
1E	-bat
!LO:LB:g=original	!
1r	.
=20-	=20-
2r	.
1A	Pu-
2G#X\	-er
=21-	=21-
1A	au-
2E\	-tem
2Gny\	Se-
=22-	=22-
2F\	-nem
2E\	re-
1F	-ge-
=23-	=23-
!LO:TX:t=P:problem:kreska pseudotaktowa	!
1E	-bat
00r	.
=24-	=24-
.	.
=25-	=25-
.	.
0r	.
=26-	=26-
.	.
2r	.
1E\	Pu-
=27-	=27-
.	.
2D\	-er
1E	au-
=28-	=28-
2AA/	-tem
1C	Se-
2BB/	-nem
=29-	=29-
1AA	re-
2.D/	-ge-
4E\	.
=30-	=30-
4F\	.
4G\	.
1A	.
2G\	.
=31-	=31-
1F	.
!LO:TX:t=P:problem:kreska pseudotaktowa	!
1E	-bat
=32-	=32-
00r	.
=33-	=33-
.	.
=34-	=34-
2r	.
1D	Quem
!LO:SIC:v:custos G	!
1A\	Vir-
=35-	=35-
.	.
!LO:LB:g=original	!
2G#X\	-go
2.A\	pe-
4Gny\	.
=36-	=36-
2F\	.
2E\	.
2F\	.
2G\	-pe-
=37-	=37-
!LO:TX:t=P:problem:kreska pseudotaktowa	!
1C	-rit
0r	.
=38-	=38-
.	.
2r	.
1E\	Quem
=39-	=39-
.	.
1G	Vir-
2F\	-go
=40-	=40-
2.G\	pe-
4F\	.
2E\	.
2D\	.
=41-	=41-
2E\	.
2E\	-pe-
!LO:TX:t=P:problem:kreska pseudotaktowa	!
1D	-rit
=42-	=42-
0r	.
=43-	=43-
2r	.
1A\	et
2D/	post
=44-	=44-
1A	par-
1G	-tum
=45-	=45-
1A	Vir-
2.F\	-go
4E\	.
=46-	=46-
2D/	.
2C/	per-
!LO:LB:g=original	!
1BB	-man-
=47-	=47-
1AA	-sit
1A	Vir-
=48-	=48-
1D	-go
1D	per-
=49-	=49-
1E	-man-
0AA	-sit
=50-	=50-
.	.
!LO:TX:t=5.	!
0r	.
=51-	=51-
.	.
0r	.
=52-	=52-
.	.
1r	.
=53-	=53-
2r	.
1D\	et
2AA/	post
=54-	=54-
1D	par-
1C	-tum
=55-	=55-
4D\	Vir-
4E\	.
4F\	.
4G\	.
1A	-go
=56-	=56-
2F\	.
2F\	-per-
2.G\	-man-
4F\	.
=57-	=57-
4E\	.
4D/	.
4C/	.
4BB/	.
1AA	.
=58-	=58-
!LO:TX:t=P:problem:kreska pseudotaktowa	!
0AA	-sit
=59-	=59-
00r	.
=60-	=60-
.	.
=61-	=61-
!LO:TX:t=P:problem:kreska pseudotaktowa	!
1r	.
!LO:LB:g=original	!
2r	.
2E\	Ip-
=62-	=62-
2D\	-sum
2E\	Quem
2F\	ge-
2F\	-nu-
=63-	=63-
!LO:TX:t=P:problem:kreska pseudotaktowa	!
1E	-it
2.A\	a-
4G\	-do-
=64-	=64-
2F\	-ra-
2E\	.
1D	.
=65-	=65-
!LO:TX:t=P:problem:kreska pseudotaktowa	!
1C	-vit
00r	.
=66-	=66-
.	.
=67-	=67-
.	.
1r	.
=68-	=68-
2r	.
1A\	a-
2G\	-do-
=69-	=69-
2.F\	-ra-
4E\	.
2D/	.
2C/	.
=70-	=70-
1BB	.
!LO:TX:t=P:problem:kreska pseudotaktowa	!
1AA	-vit
=71-	=71-
00r	.
=72-	=72-
.	.
=73-	=73-
2r	.
2E\	Ip-
2D\	-su(m)
2E\	quem
=74-	=74-
2F\	ge-
2F\	-nu-
!LO:LB:g=original	!
!LO:TX:t=P:problem:kreska pseudotaktowa	!
1E	-it
=75-	=75-
2.A\	A-
4G\	-do-
2F\	.
2E\	.
=76-	=76-
1D	-ra-
1C	-vit
=77-	=77-
00r	.
=78-	=78-
.	.
=79-	=79-
0C	a-
=80-	=80-
1AA	-do-
1E	-ra-
=81-	=81-
0AA	.
=82-	=82-
0El;	-vit
=83||-	=83||-
*M2/1	*
*met(C|)	*
!LO:TX:t=2da pars	!
00r	.
=84-	=84-
.	.
=85-	=85-
00r	.
=86-	=86-
.	.
=87-	=87-
00r	.
=88-	=88-
.	.
=89-	=89-
0r	.
=90-	=90-
1.E	Ho-
2E\	-di-
=91-	=91-
0E	-e
!LO:LB:g=original	!
=92-	=92-
2rC	.
2AA/	Be-
2D/	-a-
2C/	-ta
=93-	=93-
1F	Vir-
2E\	-go
2.C/	Ma-
=94-	=94-
.	.
4D/	.
2E\	-ri-
4AA/	.
4BB/	.
4C/	.
4D/	.
=95-	=95-
1E	.
2.F\	.
4E\	.
=96-	=96-
2D/	.
2AA/	.
!LO:TX:t=P:problem:kreska pseudotaktowa	!
1D	-a
=97-	=97-
00r	.
=98-	=98-
.	.
=99-	=99-
1r	.
2r	.
2AA/	Be-
=100-	=100-
2D/	-a-
2C/	-ta
1F	Vir-
=101-	=101-
2.E\	-go
4F\	Ma-
2G#X\	-(ri)-
!LO:SIC:v:custos G#	!
2A\	.
!LO:PB:g=original	!
=102-	=102-
2G#X\	.
2A\	.
1E	.
=103-	=103-
!LO:TX:t=P:problem:kreska pseudotaktowa	!
1Gny	-a
!LO:TX:t=7.	!
00r	.
=104-	=104-
.	.
=105-	=105-
.	.
0r	.
=106-	=106-
.	.
1r	.
=107-	=107-
1.D	Pu-
2D/	-e-
=108-	=108-
1E	-rum
1F	Je-
=109-	=109-
2D/	-su(m)
1F	prae-
2E\	-sen-
=110-	=110-
2D\	-ta-
2C#X/	-vit
1D	in
=111-	=111-
1BB	tem-
2AA/	-plo
1A\	prae-
=112-	=112-
.	.
2F\	-sen-
2G\	-ta-
1F\	-vit
=113-	=113-
.	.
2Cny/	in
2.D/	tem-
4E\	.
=114-	=114-
4F\	.
4G\	.
1A	.
2G#X\	.
!LO:LB:g=original	!
=115-	=115-
!LO:TX:t=P:problem:kreska pseudotaktowa	!
0A	-plo
=116-	=116-
00r	.
=117-	=117-
.	.
=118-	=118-
0r	.
=119-	=119-
1D	et
1E	Si-
=120-	=120-
1F	-me-
!LO:TX:t=P:problem:kreska pseudotaktowa	!
1Gny	-on
=121-	=121-
!LO:TX:t=P:problem:kreska pseudotaktowa	!
1r	.
1D	et
=122-	=122-
1E	Si-
1F	-me-
=123-	=123-
1G	-on
1C	re-
=124-	=124-
1F	-ple-
1D	-tus
=125-	=125-
1.G	Spi-
2E\	-ri-
=126-	=126-
1E	-tu
2.A\	San-
4G\	.
=127-	=127-
4F\	.
4E\	.
2F\	.
1G	.
=128-	=128-
!LO:TX:t=P:problem:kreska pseudotaktowa	!
1C	-cto,
1r	.
=129-	=129-
2r	.
!LO:SIC:v:custos C	!
2GG/	et
!LO:LB:g=original	!
2C/	Si-
2E\	-me-
=130-	=130-
1D	-on
1GG	.
=131-	=131-
1C	et
1D	Si-
=132-	=132-
1E	-me-
0F	-on
=133-	=133-
.	.
1D	re-
=134-	=134-
1G	-ple-
1E	-t(us)
=135-	=135-
1.C	Spi-
.	.
2C/	-ri-
=136-	=136-
1AA	-tu
1D	S(an)-
=137-	=137-
!LO:TX:t=P:problem:kreska pseudotaktowa	!
0AA	-cto.
=138-	=138-
!LO:TX:t=P:problem:kreska pseudotaktowa	!
!LO:TX:t=2	!
0r	.
=139-	=139-
1C	ac-
2E\	-ce-
2E\	-pit
=140-	=140-
1F	E-
2.E\	-um
4F\	in
=141-	=141-
2G\	ul-
2E\	-nas
!LO:LB:g=original	!
1A	su-
=142-	=142-
!LO:TX:t=P:problem:kreska pseudotaktowa	!
0G	-as
=143-	=143-
!LO:TX:t=P:problem:kreska pseudotaktowa	!
!LO:TX:t=2	!
0r	.
=144-	=144-
1C	ac-
2E\	-ce-
2E\	-pit
=145-	=145-
1F	E-
!LO:TX:t=P:problem:kreska pseudotaktowa	!
0C	-um
=146-	=146-
.	.
2r	.
2F\	in
=147-	=147-
2F\	ul-
2E\	-nes
1D	su-
=148-	=148-
2.C/	-as
4D/	.
4E\	.
4F\	.
2G\	.
=149-	=149-
1A	in
2A\	ul-
2G\	-nas
=150-	=150-
1F	su-
!LO:TX:t=P:problem:kreska pseudotaktowa	!
0E	-as
=151-	=151-
.	.
!LO:TX:t=1.	!
1r	.
=152-	=152-
2r	.
2E\	et
2E\	be-
!LO:TX:t=P:problem:kreska pseudotaktowa	!
2E\	-ne-
!LO:LB:g=original	!
=153-	=153-
1.A	-di-
2G\	-xit
=154-	=154-
2.F\	E-
4E\	-um
2D/	in
2C/	ae-
=155-	=155-
1BB	-ter-
!LO:TX:t=P:problem:kreska pseudotaktowa	!
0AA	-num
=156-	=156-
.	.
00r	.
=157-	=157-
.	.
=158-	=158-
.	.
1r	.
=159-	=159-
1E	et
2E\	be-
2E\	-ne-
=160-	=160-
1.A	-di-
2G\	-xit
=161-	=161-
1F	E-
2.D/	-um
4E\	in
=162-	=162-
2F#X\	ae-
1G	-ter-
2C/	.
=163-	=163-
1D	.
!LO:TX:t=P:problem:kreska pseudotaktowa	!
!LO:TX:t=2	!
0AA	-num
=164-	=164-
.	.
1AA	et
=165-	=165-
2AA/	be-
2AA/	-ne-
!LO:LB:g=original	!
1D	-di-
=166-	=166-
2.C/	-xit
4BB/	Eu(m)
1AA	in
=167-	=167-
2ryy	.
2GG#X/	ae-
1AA	-ter-
=168-	=168-
0El;	-num.
==	==
*-	*-
!!!END: 2021-03-11
!!!AIN: 1 empty
!!!ENC: Marta Lawrence
!!!END: 2021-03-31
!!!ENC: Kamil Watkowski
!!!RDF**kern: l = terminal long
